X: 1083
M: 2/4
L: 1/16
K: G
(Bc) |\
d2g2d2B2 | dcBc A2AB | c2a2c2A2 | BcdB G2 Bc |\
d2g2b2B2 | dcBc A2AB | cBAG D2B2 | (B4 "^D.C."A2) |]
z2 |\



